THStack/err.svg

<svg xmlns="http://www.w3.org/2000/svg" viewBox="0 0 1200 800" preserveAspectRatio="none" width="1200" height="800">
 <path d="M0,0H1200V800H0Z" style="fill: white;"></path>
 <g>
  <svg viewBox="0 0 576 784" preserveAspectRatio="none" x="12" y="8" width="576" height="784">
   <path d="M0,0H576V784H0Z" style="fill: white;"></path>
   <g>
    <g transform="translate(58,78)">
     <path d="M0,0H461V627H0Z" style="fill: white; stroke: black; stroke-width: 1;"></path>
     <svg x="0" y="0" overflow="hidden" width="461" height="627" viewBox="0 0 461 627">
      <g>
       <path d="M138,625h24M150,623v3M161,591h24M173,584v13M184,377h24M196,360v34M207,32h24M219,6v53M231,30h24M243,3v53M254,401h24M266,384v33M277,589h24M289,582v13M300,624h24M312,621v5M323,626h24M335,625v2" style="stroke: blue; stroke-width: 1;"></path>
      </g>
      <g>
       <path d="M138,626h24M150,625v2M161,604h24M173,598v11M184,463h24M196,449v27M207,241h24M219,220v42M231,214h24M243,192v44M254,481h24M266,468v26M277,599h24M289,593v12M300,624h24M312,621v5M323,626h24M335,625v2" style="stroke: #cc00ff; stroke-width: 1;"></path>
      </g>
     </svg>
     <g>
      <g transform="translate(0,627)">
       <path d="M0,0h461M0,-24v24m12,-12v12m11,-12v12m12,-12v12m11,-24v24m12,-12v12m11,-12v12m12,-12v12m11,-24v24m12,-12v12m11,-12v12m12,-12v12m11,-24v24m12,-12v12m11,-12v12m12,-12v12m11,-24v24m12,-12v12m11,-12v12m12,-12v12m12,-24v24m11,-12v12m12,-12v12m11,-12v12m12,-24v24m11,-12v12m12,-12v12m11,-12v12m12,-24v24m11,-12v12m12,-12v12m11,-12v12m12,-24v24m11,-12v12m12,-12v12m11,-12v12m12,-24v24m11,-12v12m12,-12v12m11,-12v12m12,-24v24" style="stroke: black; stroke-width: 1;"></path>
       <g font-family="Arial" font-size="20" space="preserve" fill="black" text-anchor="middle">
        <text dy=".8em" transform="translate(0,5)">
         -10
        </text>
        <text dy=".8em" transform="translate(46,5)">
         -8
        </text>
        <text dy=".8em" transform="translate(92,5)">
         -6
        </text>
        <text dy=".8em" transform="translate(138,5)">
         -4
        </text>
        <text dy=".8em" transform="translate(184,5)">
         -2
        </text>
        <text dy=".8em" transform="translate(231,5)">
         0
        </text>
        <text dy=".8em" transform="translate(277,5)">
         2
        </text>
        <text dy=".8em" transform="translate(323,5)">
         4
        </text>
        <text dy=".8em" transform="translate(369,5)">
         6
        </text>
        <text dy=".8em" transform="translate(415,5)">
         8
        </text>
        <text dy=".8em" transform="translate(461,5)">
         10
        </text>
       </g>
      </g>
      <g>
       <path d="M0,0v627M17,627h-17m9,-23h-9m9,-24h-9m9,-23h-9m9,-23h-9m17,-24h-17m9,-23h-9m9,-23h-9m9,-24h-9m9,-23h-9m17,-23h-17m9,-24h-9m9,-23h-9m9,-23h-9m9,-24h-9m17,-23h-17m9,-23h-9m9,-24h-9m9,-23h-9m9,-23h-9m17,-24h-17m9,-23h-9m9,-23h-9m9,-23h-9m9,-24h-9m17,-23h-17m9,-23h-9" style="stroke: black; stroke-width: 1;"></path>
       <g font-family="Arial" font-size="20" space="preserve" fill="black" text-anchor="end">
        <text dy=".4em" transform="translate(-3,627)">
         0
        </text>
        <text dy=".4em" transform="translate(-3,510)">
         100
        </text>
        <text dy=".4em" transform="translate(-3,394)">
         200
        </text>
        <text dy=".4em" transform="translate(-3,277)">
         300
        </text>
        <text dy=".4em" transform="translate(-3,160)">
         400
        </text>
        <text dy=".4em" transform="translate(-3,44)">
         500
        </text>
       </g>
      </g>
     </g>
    </g>
    <g transform="translate(263,4)" font-family="Arial" font-size="26" space="preserve">
     <text fill="black" text-anchor="middle" dy=".4em" transform="translate(25,22)">
      st1
     </text>
    </g>
   </g>
  </svg>
  <svg viewBox="0 0 576 784" preserveAspectRatio="none" x="612" y="8" width="576" height="784">
   <path d="M0,0H576V784H0Z" style="fill: white;"></path>
   <g>
    <g transform="translate(58,78)">
     <path d="M0,0H461V627H0Z" style="fill: white; stroke: black; stroke-width: 1;"></path>
     <svg x="0" y="0" overflow="hidden" width="461" height="627" viewBox="0 0 461 627">
      <g>
       <path d="M0,627h138v-2h23v-34h23v-214h23v-345h24v-2h23v371h23v188h23v35h23v2h23v1h115L461,630H0Z" style="stroke-linejoin: miter; stroke: blue; stroke-width: 1; fill: blue;"></path>
      </g>
      <g>
       <path d="M0,627h138v-1h23v-22h23v-141h23v-222h24v-27h23v267h23v118h23v25h23v2h23v1h115L461,630H0Z" style="stroke-linejoin: miter; stroke: #cc00ff; stroke-width: 1; fill: #cc00ff;"></path>
      </g>
     </svg>
     <g>
      <g transform="translate(0,627)">
       <path d="M0,0h461M0,-24v24m12,-12v12m11,-12v12m12,-12v12m11,-24v24m12,-12v12m11,-12v12m12,-12v12m11,-24v24m12,-12v12m11,-12v12m12,-12v12m11,-24v24m12,-12v12m11,-12v12m12,-12v12m11,-24v24m12,-12v12m11,-12v12m12,-12v12m12,-24v24m11,-12v12m12,-12v12m11,-12v12m12,-24v24m11,-12v12m12,-12v12m11,-12v12m12,-24v24m11,-12v12m12,-12v12m11,-12v12m12,-24v24m11,-12v12m12,-12v12m11,-12v12m12,-24v24m11,-12v12m12,-12v12m11,-12v12m12,-24v24" style="stroke: black; stroke-width: 1;"></path>
       <g font-family="Arial" font-size="20" space="preserve" fill="black" text-anchor="middle">
        <text dy=".8em" transform="translate(0,5)">
         -10
        </text>
        <text dy=".8em" transform="translate(46,5)">
         -8
        </text>
        <text dy=".8em" transform="translate(92,5)">
         -6
        </text>
        <text dy=".8em" transform="translate(138,5)">
         -4
        </text>
        <text dy=".8em" transform="translate(184,5)">
         -2
        </text>
        <text dy=".8em" transform="translate(231,5)">
         0
        </text>
        <text dy=".8em" transform="translate(277,5)">
         2
        </text>
        <text dy=".8em" transform="translate(323,5)">
         4
        </text>
        <text dy=".8em" transform="translate(369,5)">
         6
        </text>
        <text dy=".8em" transform="translate(415,5)">
         8
        </text>
        <text dy=".8em" transform="translate(461,5)">
         10
        </text>
       </g>
      </g>
      <g>
       <path d="M0,0v627M17,627h-17m9,-12h-9m9,-11h-9m9,-12h-9m9,-12h-9m17,-11h-17m9,-12h-9m9,-12h-9m9,-11h-9m9,-12h-9m17,-12h-17m9,-11h-9m9,-12h-9m9,-12h-9m9,-11h-9m17,-12h-17m9,-12h-9m9,-11h-9m9,-12h-9m9,-12h-9m17,-11h-17m9,-12h-9m9,-12h-9m9,-11h-9m9,-12h-9m17,-12h-17m9,-11h-9m9,-12h-9m9,-12h-9m9,-11h-9m17,-12h-17m9,-12h-9m9,-11h-9m9,-12h-9m9,-12h-9m17,-11h-17m9,-12h-9m9,-12h-9m9,-11h-9m9,-12h-9m17,-12h-17m9,-11h-9m9,-12h-9m9,-12h-9m9,-11h-9m17,-12h-17m9,-11h-9m9,-12h-9m9,-12h-9m9,-11h-9m17,-12h-17m9,-12h-9m9,-11h-9m9,-12h-9" style="stroke: black; stroke-width: 1;"></path>
       <g font-family="Arial" font-size="20" space="preserve" fill="black" text-anchor="end">
        <text dy=".4em" transform="translate(-3,627)">
         0
        </text>
        <text dy=".4em" transform="translate(-3,569)">
         50
        </text>
        <text dy=".4em" transform="translate(-3,510)">
         100
        </text>
        <text dy=".4em" transform="translate(-3,452)">
         150
        </text>
        <text dy=".4em" transform="translate(-3,394)">
         200
        </text>
        <text dy=".4em" transform="translate(-3,335)">
         250
        </text>
        <text dy=".4em" transform="translate(-3,277)">
         300
        </text>
        <text dy=".4em" transform="translate(-3,219)">
         350
        </text>
        <text dy=".4em" transform="translate(-3,160)">
         400
        </text>
        <text dy=".4em" transform="translate(-3,102)">
         450
        </text>
        <text dy=".4em" transform="translate(-3,44)">
         500
        </text>
       </g>
      </g>
     </g>
    </g>
    <g transform="translate(263,4)" font-family="Arial" font-size="26" space="preserve">
     <text fill="black" text-anchor="middle" dy=".4em" transform="translate(25,22)">
      st1
     </text>
    </g>
   </g>
  </svg>
 </g>
</svg>

<svg xmlns="http://www.w3.org/2000/svg" viewBox="0 0 1200 800" preserveAspectRatio="none" width="1200" height="800">
 <path d="M0,0H1200V800H0Z" style="fill: white;"></path>
 <g>
  <svg viewBox="0 0 576 784" preserveAspectRatio="none" x="12" y="8" width="576" height="784">
   <path d="M0,0H576V784H0Z" style="fill: white;"></path>
   <g>
    <g transform="translate(58,78)">
     <path d="M0,0H461V627H0Z" style="fill: white; stroke: black; stroke-width: 1;"></path>
     <svg x="0" y="0" overflow="hidden" width="461" height="627" viewBox="0 0 461 627">
      <g>
       <path d="M138,625h24M150,623v3M161,591h24M173,584v13M184,377h24M196,360v34M207,32h24M219,6v53M231,30h24M243,3v53M254,401h24M266,384v33M277,589h24M289,582v13M300,624h24M312,621v5M323,626h24M335,625v2" style="stroke: blue; stroke-width: 1;"></path>
      </g>
      <g>
       <path d="M138,626h24M150,625v2M161,604h24M173,598v11M184,463h24M196,449v27M207,241h24M219,220v42M231,214h24M243,192v44M254,481h24M266,468v26M277,599h24M289,593v12M300,624h24M312,621v5M323,626h24M335,625v2" style="stroke: #cc00ff; stroke-width: 1;"></path>
      </g>
     </svg>
     <g>
      <g transform="translate(0,627)">
       <path d="M0,0h461M0,-24V0M12,-12V0M23,-12V0M35,-12V0M46,-24V0M58,-12V0M69,-12V0M81,-12V0M92,-24V0M104,-12V0M115,-12V0M127,-12V0M138,-24V0M150,-12V0M161,-12V0M173,-12V0M184,-24V0M196,-12V0M207,-12V0M219,-12V0M231,-24V0M242,-12V0M254,-12V0M265,-12V0M277,-24V0M288,-12V0M300,-12V0M311,-12V0M323,-24V0M334,-12V0M346,-12V0M357,-12V0M369,-24V0M380,-12V0M392,-12V0M403,-12V0M415,-24V0M426,-12V0M438,-12V0M449,-12V0M461,-24V0" style="stroke: black; stroke-width: 1;"></path>
       <g font-family="Arial" font-size="20" space="preserve" fill="black" text-anchor="middle">
        <text dy=".8em" transform="translate(0,5)">
         -10
        </text>
        <text dy=".8em" transform="translate(46,5)">
         -8
        </text>
        <text dy=".8em" transform="translate(92,5)">
         -6
        </text>
        <text dy=".8em" transform="translate(138,5)">
         -4
        </text>
        <text dy=".8em" transform="translate(184,5)">
         -2
        </text>
        <text dy=".8em" transform="translate(231,5)">
         0
        </text>
        <text dy=".8em" transform="translate(277,5)">
         2
        </text>
        <text dy=".8em" transform="translate(323,5)">
         4
        </text>
        <text dy=".8em" transform="translate(369,5)">
         6
        </text>
        <text dy=".8em" transform="translate(415,5)">
         8
        </text>
        <text dy=".8em" transform="translate(461,5)">
         10
        </text>
       </g>
      </g>
      <g>
       <path d="M0,0v627M17,627H0M9,604H0M9,580H0M9,557H0M9,534H0M17,510H0M9,487H0M9,464H0M9,440H0M9,417H0M17,394H0M9,370H0M9,347H0M9,324H0M9,300H0M17,277H0M9,254H0M9,230H0M9,207H0M9,184H0M17,160H0M9,137H0M9,114H0M9,91H0M9,67H0M17,44H0M9,21H0" style="stroke: black; stroke-width: 1;"></path>
       <g font-family="Arial" font-size="20" space="preserve" fill="black" text-anchor="end">
        <text dy=".4em" transform="translate(-3,627)">
         0
        </text>
        <text dy=".4em" transform="translate(-3,510)">
         100
        </text>
        <text dy=".4em" transform="translate(-3,394)">
         200
        </text>
        <text dy=".4em" transform="translate(-3,277)">
         300
        </text>
        <text dy=".4em" transform="translate(-3,160)">
         400
        </text>
        <text dy=".4em" transform="translate(-3,44)">
         500
        </text>
       </g>
      </g>
     </g>
    </g>
    <g transform="translate(263,4)" font-family="Arial" font-size="26" space="preserve">
     <text fill="black" text-anchor="middle" dy=".4em" transform="translate(25,22)">
      st1
     </text>
    </g>
   </g>
  </svg>
  <svg viewBox="0 0 576 784" preserveAspectRatio="none" x="612" y="8" width="576" height="784">
   <path d="M0,0H576V784H0Z" style="fill: white;"></path>
   <g>
    <g transform="translate(58,78)">
     <path d="M0,0H461V627H0Z" style="fill: white; stroke: black; stroke-width: 1;"></path>
     <svg x="0" y="0" overflow="hidden" width="461" height="627" viewBox="0 0 461 627">
      <g>
       <path d="M0,627h138v-2h23v-34h23v-214h23v-345h24v-2h23v371h23v188h23v35h23v2h23v1h115L461,630H0Z" style="stroke-linejoin: miter; stroke: blue; stroke-width: 1; fill: blue;"></path>
      </g>
      <g>
       <path d="M0,627h138v-1h23v-22h23v-141h23v-222h24v-27h23v267h23v118h23v25h23v2h23v1h115L461,630H0Z" style="stroke-linejoin: miter; stroke: #cc00ff; stroke-width: 1; fill: #cc00ff;"></path>
      </g>
     </svg>
     <g>
      <g transform="translate(0,627)">
       <path d="M0,0h461M0,-24V0M12,-12V0M23,-12V0M35,-12V0M46,-24V0M58,-12V0M69,-12V0M81,-12V0M92,-24V0M104,-12V0M115,-12V0M127,-12V0M138,-24V0M150,-12V0M161,-12V0M173,-12V0M184,-24V0M196,-12V0M207,-12V0M219,-12V0M231,-24V0M242,-12V0M254,-12V0M265,-12V0M277,-24V0M288,-12V0M300,-12V0M311,-12V0M323,-24V0M334,-12V0M346,-12V0M357,-12V0M369,-24V0M380,-12V0M392,-12V0M403,-12V0M415,-24V0M426,-12V0M438,-12V0M449,-12V0M461,-24V0" style="stroke: black; stroke-width: 1;"></path>
       <g font-family="Arial" font-size="20" space="preserve" fill="black" text-anchor="middle">
        <text dy=".8em" transform="translate(0,5)">
         -10
        </text>
        <text dy=".8em" transform="translate(46,5)">
         -8
        </text>
        <text dy=".8em" transform="translate(92,5)">
         -6
        </text>
        <text dy=".8em" transform="translate(138,5)">
         -4
        </text>
        <text dy=".8em" transform="translate(184,5)">
         -2
        </text>
        <text dy=".8em" transform="translate(231,5)">
         0
        </text>
        <text dy=".8em" transform="translate(277,5)">
         2
        </text>
        <text dy=".8em" transform="translate(323,5)">
         4
        </text>
        <text dy=".8em" transform="translate(369,5)">
         6
        </text>
        <text dy=".8em" transform="translate(415,5)">
         8
        </text>
        <text dy=".8em" transform="translate(461,5)">
         10
        </text>
       </g>
      </g>
      <g>
       <path d="M0,0v627M17,627H0M9,615H0M9,604H0M9,592H0M9,580H0M17,569H0M9,557H0M9,545H0M9,534H0M9,522H0M17,510H0M9,499H0M9,487H0M9,475H0M9,464H0M17,452H0M9,440H0M9,429H0M9,417H0M9,405H0M17,394H0M9,382H0M9,370H0M9,359H0M9,347H0M17,335H0M9,324H0M9,312H0M9,300H0M9,289H0M17,277H0M9,265H0M9,254H0M9,242H0M9,230H0M17,219H0M9,207H0M9,195H0M9,184H0M9,172H0M17,160H0M9,149H0M9,137H0M9,125H0M9,114H0M17,102H0M9,91H0M9,79H0M9,67H0M9,56H0M17,44H0M9,32H0M9,21H0M9,9H0" style="stroke: black; stroke-width: 1;"></path>
       <g font-family="Arial" font-size="20" space="preserve" fill="black" text-anchor="end">
        <text dy=".4em" transform="translate(-3,627)">
         0
        </text>
        <text dy=".4em" transform="translate(-3,569)">
         50
        </text>
        <text dy=".4em" transform="translate(-3,510)">
         100
        </text>
        <text dy=".4em" transform="translate(-3,452)">
         150
        </text>
        <text dy=".4em" transform="translate(-3,394)">
         200
        </text>
        <text dy=".4em" transform="translate(-3,335)">
         250
        </text>
        <text dy=".4em" transform="translate(-3,277)">
         300
        </text>
        <text dy=".4em" transform="translate(-3,219)">
         350
        </text>
        <text dy=".4em" transform="translate(-3,160)">
         400
        </text>
        <text dy=".4em" transform="translate(-3,102)">
         450
        </text>
        <text dy=".4em" transform="translate(-3,44)">
         500
        </text>
       </g>
      </g>
     </g>
    </g>
    <g transform="translate(263,4)" font-family="Arial" font-size="26" space="preserve">
     <text fill="black" text-anchor="middle" dy=".4em" transform="translate(25,22)">
      st1
     </text>
    </g>
   </g>
  </svg>
 </g>
</svg>
